X: 252
T: Princess Grace's
C: B.Black 4/3/07
N: 162236
M: 2/4
L: 1/8
Q: 400
R: polka (or march) 
K: G
zD | "G"G2 AB | "C"c2 BA | "G"G2 D2 | "Em"E3F |\
"G"G2 AB |"Am"c2 e2 | "G"d2 cB | "D"A3F |
"G"G2 AB | "C"c2 Bc | "G"d2 g2 | "C"e2 dc |\
"G"Bc d2 | "Am"AB cB | "D"A2 F2 | "G"G2 :|
Bd | "G"g2 fe | "Bm"d2 Bd | "Em"g2 B2 | "C"c3 e|\
"G"d2 Bd | "Em"e2 fg | "Am"a2 e2 |"D"f2 d2 |
"G"B2 d2 | "C"c2 e2 | "D"d2 ef | "Em"g2 fe |\
"G"d3 B | "Am"c2 Bc | "D"de fa | "G"g2 :|
%%%%%%%%%%%%%%%
